!!!SOCIAL_FUNCTION:	bird dance songs
!!!PDT:	1932
!!!OTL: No_114_Bird_Dance_Song_(c).krn
!!!REG: Southwest
!!!LANG: Non-Tone
!!!LING_GROUP: Yuman-Cochimi
**kern
*staff1
=1-
*clefF4
*k[b-e-a-d-]
*M2/4
8.A-\L
16A-\Jk
16.A-\LL
32A-\K
16A-\
16A-\JJ
=2
4A-\
4r
=3
8.A-\L
16A-\Jk
16.A-\LL
32c\K
16c\
16A-\JJ
=4
8.B-\L
16A-\Jk
8F\
8r
=5
12c\L
12A-\
12A-\J
16.A-\LL
32A-\K
16A-\
16A-\JJ
=6
4A-\
8F\
8r
=7
8.A-\L
16A-\Jk
16.A-\LL
32A-\K
16A-\
16A-\JJ
=8
4A-\
8F\
8r
=9
8.A-\L
16A-\Jk
16.B-\LL
32B-\K
16c\
16A-\JJ
=10
8.B-\L
16A-\Jk
8F\
8r
=11
8.A-\L
16A-\Jk
16.A-\LL
32A-\K
16A-\
16A-\JJ
=12
4A-\
4r
=13
8.A-\L
16A-\Jk
16.A-\LL
32A-\K
16A-\
16F\JJ
=14
4A-\
8F\
8r
=15
8.A-\L
16A-\Jk
16.B-\LL
32B-\K
16c\
16A-\JJ
=16
8.B-\L
16A-\Jk
8F\
8r
=17
8.A-\L
16A-\Jk
16.A-\LL
32A-\K
16A-\
16A-\JJ
=18
4A-\
8F\
8r
=19
8.A-\L
16A-\Jk
16.A-\LL
32c\K
16A-\
16A-\JJ
=20
4A-\
8F\
8r
=21
8.c\L
16e-\Jk
16.e-\LL
32f\K
16f\
16e-\JJ
=22
16f\LK
8.e-\J
12c\L
12A-\
12A-\J
=23
4A-\
12c\L
12c\
12A-\J
=24
12c\L
12B-\
12A-\J
8F\
8r
=25
8.A-\L
16A-\Jk
16.A-\LL
32A-\K
16A-\
16A-\JJ
=26
4A-\
4r
=27
8.A-\L
16A-\Jk
16.A-\LL
32A-\K
16A-\
16F\JJ
=28
4A-\
8F\
8r
=29
8.A-\L
16A-\Jk
16.B-\LL
32B-\K
16c\
16A-\JJ
=30
8.B-\L
16A-\Jk
8F\
8r
=31
8.A-\L
16A-\Jk
16.A-\LL
32A-\K
16A-\
16A-\JJ
=32
4A-\
4r
==
*-
